packages/components/src/components/icon/wallet/ic-wallet-neteller-dark.svg

<svg width="40" height="25" viewBox="0 0 40 25" fill="none" xmlns="http://www.w3.org/2000/svg">
<path fill-rule="evenodd" clip-rule="evenodd" d="M35.0508 10.4049C34.6539 10.1403 34.0499 10 33.2609 10H31.1927L30.422 14.1099H27.7132L27.885 13.1881H29.5323L29.7253 12.1421H28.0813L28.2555 11.2127H29.9376L30.1626 10.0075H26.7466L26.0155 13.9009H24.7656L25.4991 10.0104H23.7063L22.9832 13.9004H21.7624L22.4988 10.0104H20.714L19.9433 14.1123H17.2128L17.3851 13.1881H19.0244L19.2174 12.1289H17.5809L17.7561 11.1967H19.4693L19.6783 10.0104H9.03529L8.42892 13.2677L7.22418 10.0104H5.37024L4.375 15.3067H6.14373L6.75811 11.9698L7.91812 15.3067H14.2577L15.0284 11.1939H16.0264L15.2482 15.3067H31.9314L32.4163 12.7112L33.2105 15.3067H34.982L34.1718 13.1881L34.3545 13.1486C34.7264 13.0846 35.0635 12.8897 35.3055 12.6001C35.5277 12.2913 35.6397 11.9161 35.6228 11.5357C35.6496 11.0837 35.4312 10.6516 35.0508 10.4049ZM12.7168 14.1123H10.0098L10.1849 13.1881H11.8821L12.0756 12.1289H10.394L10.5554 11.2047H13.2592L12.7163 14.1123H12.7168ZM33.5918 12.3224C33.3517 12.4617 33.0744 12.5253 32.7976 12.505H32.4455L32.7101 11.0776H32.9751C33.2015 11.0635 33.428 11.1115 33.629 11.2179C33.8009 11.3234 33.9021 11.514 33.8936 11.716C33.9058 11.9561 33.7914 12.1854 33.5923 12.3195V12.3224H33.5918Z" fill="#8DC640"/>
</svg>

<svg width="40" height="25" fill="none" xmlns="http://www.w3.org/2000/svg"><path fill-rule="evenodd" clip-rule="evenodd" d="M35.05 10.405c-.396-.265-1-.405-1.79-.405h-2.067l-.771 4.11h-2.709l.172-.922h1.647l.193-1.046h-1.644l.175-.93h1.682l.225-1.204h-3.416l-.732 3.893h-1.25l.734-3.89h-1.793l-.723 3.89h-1.22l.736-3.89h-1.785l-.77 4.101h-2.731l.172-.924h1.64l.192-1.06h-1.636l.175-.931h1.713l.21-1.187H9.034l-.606 3.258-1.205-3.258H5.37l-.995 5.297h1.769l.614-3.337 1.16 3.337h6.34l.77-4.113h.998l-.778 4.113h16.683l.485-2.596.795 2.596h1.771l-.81-2.119.183-.04c.371-.063.709-.258.95-.548.223-.309.335-.684.318-1.064a1.26 1.26 0 00-.572-1.131zm-22.333 3.707H10.01l.175-.924h1.697l.194-1.06h-1.682l.161-.923h2.704l-.543 2.907zm20.875-1.79c-.24.14-.518.203-.794.183h-.352l.264-1.427h.265c.227-.014.453.034.654.14a.557.557 0 01.265.498.686.686 0 01-.302.604v.002z" fill="#8DC640"/></svg>
